assets/img/shape02.svg

<svg width="447" height="324" viewBox="0 0 447 324" fill="none" xmlns="http://www.w3.org/2000/svg">
<mask id="path-1-inside-1_225_29" fill="white">
<path fill-rule="evenodd" clip-rule="evenodd" d="M390.091 225.159C395.57 241.041 415.652 245.72 424.966 231.738C439.087 210.538 447 186.767 447 161.66C447 72.3775 346.936 0 223.5 0C100.064 0 0 72.3775 0 161.66C0 250.942 100.064 323.319 223.5 323.319C234.418 323.319 245.154 322.753 255.653 321.659C277.448 319.388 295.298 304.333 304.374 284.388L332.57 222.429C344.172 196.934 380.956 198.68 390.091 225.159Z"/>
</mask>
<path fill-rule="evenodd" clip-rule="evenodd" d="M390.091 225.159C395.57 241.041 415.652 245.72 424.966 231.738C439.087 210.538 447 186.767 447 161.66C447 72.3775 346.936 0 223.5 0C100.064 0 0 72.3775 0 161.66C0 250.942 100.064 323.319 223.5 323.319C234.418 323.319 245.154 322.753 255.653 321.659C277.448 319.388 295.298 304.333 304.374 284.388L332.57 222.429C344.172 196.934 380.956 198.68 390.091 225.159Z" fill="#F5BD41"/>
<path fill-rule="evenodd" clip-rule="evenodd" d="M390.091 225.159C395.57 241.041 415.652 245.72 424.966 231.738C439.087 210.538 447 186.767 447 161.66C447 72.3775 346.936 0 223.5 0C100.064 0 0 72.3775 0 161.66C0 250.942 100.064 323.319 223.5 323.319C234.418 323.319 245.154 322.753 255.653 321.659C277.448 319.388 295.298 304.333 304.374 284.388L332.57 222.429C344.172 196.934 380.956 198.68 390.091 225.159Z" fill="#F5BD41"/>
<path fill-rule="evenodd" clip-rule="evenodd" d="M390.091 225.159C395.57 241.041 415.652 245.72 424.966 231.738C439.087 210.538 447 186.767 447 161.66C447 72.3775 346.936 0 223.5 0C100.064 0 0 72.3775 0 161.66C0 250.942 100.064 323.319 223.5 323.319C234.418 323.319 245.154 322.753 255.653 321.659C277.448 319.388 295.298 304.333 304.374 284.388L332.57 222.429C344.172 196.934 380.956 198.68 390.091 225.159Z" fill="#F5BD41"/>
<path d="M332.57 222.429L330.75 221.601L332.57 222.429ZM255.653 321.659L255.446 319.67L255.653 321.659ZM304.374 284.388L302.554 283.559L304.374 284.388ZM424.966 231.738L423.301 230.629L424.966 231.738ZM445 161.66C445 186.331 437.227 209.721 423.301 230.629L426.63 232.846C440.946 211.354 449 187.203 449 161.66H445ZM223.5 2C284.843 2 340.298 19.9875 380.366 48.9695C420.437 77.9534 445 117.821 445 161.66H449C449 116.216 423.53 75.254 382.711 45.7285C341.888 16.2012 285.592 -2 223.5 -2V2ZM2 161.66C2 117.821 26.5627 77.9534 66.6338 48.9695C106.702 19.9875 162.157 2 223.5 2V-2C161.408 -2 105.112 16.2012 64.2895 45.7285C23.4695 75.254 -2 116.216 -2 161.66H2ZM223.5 321.319C162.157 321.319 106.702 303.332 66.6338 274.35C26.5627 245.366 2 205.498 2 161.66H-2C-2 207.103 23.4695 248.065 64.2895 277.591C105.112 307.118 161.408 325.319 223.5 325.319V321.319ZM255.446 319.67C245.015 320.757 234.349 321.319 223.5 321.319V325.319C234.487 325.319 245.292 324.749 255.861 323.648L255.446 319.67ZM306.195 285.216L334.39 223.257L330.75 221.601L302.554 283.559L306.195 285.216ZM334.39 223.257C345.244 199.408 379.655 201.041 388.2 225.812L391.982 224.507C382.257 196.32 343.1 194.461 330.75 221.601L334.39 223.257ZM255.861 323.648C278.486 321.29 296.88 305.684 306.195 285.216L302.554 283.559C293.715 302.982 276.411 317.485 255.446 319.67L255.861 323.648ZM423.301 230.629C419.128 236.894 412.623 238.944 406.492 237.688C400.313 236.423 394.49 231.778 391.982 224.507L388.2 225.812C391.171 234.422 398.129 240.058 405.689 241.607C413.298 243.165 421.49 240.564 426.63 232.846L423.301 230.629Z" fill="black" mask="url(#path-1-inside-1_225_29)"/>
</svg>

<svg width="447" height="324" fill="none" xmlns="http://www.w3.org/2000/svg"><mask id="a" fill="#fff"><path fill-rule="evenodd" clip-rule="evenodd" d="M390 225.2c5.6 15.8 25.7 20.5 35 6.5 14-21.2 22-44.9 22-70C447 72.4 347 0 223.5 0S0 72.4 0 161.7C0 251 100 323.3 223.5 323.3c10.9 0 21.7-.5 32.2-1.6 21.7-2.3 39.6-17.4 48.7-37.3l28.2-62c11.6-25.4 48.4-23.7 57.4 2.8z"/></mask><path fill-rule="evenodd" clip-rule="evenodd" d="M390 225.2c5.6 15.8 25.7 20.5 35 6.5 14-21.2 22-44.9 22-70C447 72.4 347 0 223.5 0S0 72.4 0 161.7C0 251 100 323.3 223.5 323.3c10.9 0 21.7-.5 32.2-1.6 21.7-2.3 39.6-17.4 48.7-37.3l28.2-62c11.6-25.4 48.4-23.7 57.4 2.8z" fill="#F5BD41"/><path fill-rule="evenodd" clip-rule="evenodd" d="M390 225.2c5.6 15.8 25.7 20.5 35 6.5 14-21.2 22-44.9 22-70C447 72.4 347 0 223.5 0S0 72.4 0 161.7C0 251 100 323.3 223.5 323.3c10.9 0 21.7-.5 32.2-1.6 21.7-2.3 39.6-17.4 48.7-37.3l28.2-62c11.6-25.4 48.4-23.7 57.4 2.8z" fill="#F5BD41"/><path fill-rule="evenodd" clip-rule="evenodd" d="M390 225.2c5.6 15.8 25.7 20.5 35 6.5 14-21.2 22-44.9 22-70C447 72.4 347 0 223.5 0S0 72.4 0 161.7C0 251 100 323.3 223.5 323.3c10.9 0 21.7-.5 32.2-1.6 21.7-2.3 39.6-17.4 48.7-37.3l28.2-62c11.6-25.4 48.4-23.7 57.4 2.8z" fill="#F5BD41"/><path d="M332.6 222.4l-1.8-.8 1.8.8zm-76.9 99.3l-.3-2 .3 2zm48.7-37.3l-1.8-.8 1.8.8zM425 231.7l-1.7-1.1 1.7 1.1zm20-70c0 24.6-7.8 48-21.7 68.9l3.3 2.2c14.4-21.4 22.4-45.6 22.4-71.1h-4zM223.5 2c61.3 0 116.8 18 156.9 47 40 29 64.6 68.8 64.6 112.7h4c0-45.5-25.5-86.4-66.3-116C341.9 16.2 285.6-2 223.5-2v4zM2 161.7C2 117.8 26.6 78 66.6 49c40.1-29 95.6-47 156.9-47v-4C161.4-2 105.1 16.2 64.3 45.7 23.5 75.3-2 116.2-2 161.7h4zm221.5 159.6c-61.3 0-116.8-18-156.9-46.9-40-29-64.6-68.9-64.6-112.7h-4c0 45.4 25.5 86.3 66.3 115.9 40.8 29.5 97.1 47.7 159.2 47.7v-4zm31.9-1.6c-10.4 1.1-21.1 1.6-31.9 1.6v4c11 0 21.8-.6 32.4-1.7l-.5-3.9zm50.8-34.5l28.2-61.9-3.6-1.7-28.2 62 3.6 1.6zm28.2-61.9c10.8-23.9 45.3-22.3 53.8 2.5l3.8-1.3c-9.7-28.2-48.9-30-61.2-2.9l3.6 1.7zm-78.5 100.3c22.6-2.3 41-17.9 50.3-38.4l-3.6-1.6c-8.9 19.4-26.2 33.9-47.2 36.1l.5 3.9zm167.4-93c-4.2 6.3-10.7 8.4-16.8 7.1-6.2-1.3-12-5.9-14.5-13.2l-3.8 1.3c3 8.6 9.9 14.2 17.5 15.8 7.6 1.6 15.8-1 20.9-8.8l-3.3-2.2z" fill="#000" mask="url(#a)"/></svg>
